!!!OTL: Peggy O'Neil
!!!COM: Pease, Harry
!!!COM: Nelson, Edward
!!!COM: Dodge, Gilbert
!!!LAR: Frey, Hugo
!! "Peggy O'Neil" by Harry Pease, Ed. Nelson and Gilbert Dodge
!! from "Barbershop Memories" compiled and arranged by Hugo Frey
!! copyright 1975 by EMI Music Publ. Ltd.; p. 28; in C major
!! NOTE:  The second ending is encoded.
**kern	**kern	**kern	**kern
*Ivox	*Ivox	*Ivox	*Ivox
*M3/4	*M3/4	*M3/4	*M3/4
*C:	*C:	*C:	*C:
=1	=1	=1	=1
2C	2G	2E	2c
4C	4c	4G	4e
=2	=2	=2	=2
2C	2c	2A	2e
4C	4G	4c	4e
=3	=3	=3	=3
2C	2G	2E	2c
4C	4c	4G	4e
=4	=4	=4	=4
2.C	2.G	2.A	2.e
=5	=5	=5	=5
2.C	2.c	2.G	2.e
=6	=6	=6	=6
4C	4c	4A	4e
4E	4c	4G	4g
4E-	4c	4A	4f#
=7	=7	=7	=7
2.D	[2.G	[2.B	2.fn
=8	=8	=8	=8
2.GG	2.G]	2.B]	2.f
=9	=9	=9	=9
2GG	2B	2F	2d
4D	4B	4G	4f
=10	=10	=10	=10
2D	2c	2A	2f
4G	4d	4B	4f
=11	=11	=11	=11
2GG	2B	2F	2d
4D	4B	4G	4f
=12	=12	=12	=12
2.D	2.c	2.A	2.f
=13	=13	=13	=13
2GG	2.B	2.A	2.f
4D	.	.	.
=14	=14	=14	=14
4D	4G	4B	4f
4GG	4D	4A	4f
4GG	4G	4B	4f
=15	=15	=15	=15
[2.C	[2.G	[2.E	4e
.	.	.	{4B
.	.	.	4c}
=16	=16	=16	=16
4C]	4G]	4E]	4A
4r	4r	4r	4r
4C	{8C	{8E	{8G
.	8E}	8G}	8c}
=17	=17	=17	=17
4C	4G	4c	4e
4r	4r	4r	4r
4E	4G	4c	4g
=18	=18	=18	=18
4E-	4A	4c	4f#
4E-	4B	4B	4f#
4E-	4c	4A	4f#
=19	=19	=19	=19
4D	4G	4B	4fn
4F	4B	4d	4f
4D	4G	4B	4f
=20	=20	=20	=20
2.GG	2.B	2.G	2.f
=21	=21	=21	=21
4C	4G	4c	4e
4r	4r	4r	4r
4E	4G	4c	4g
=22	=22	=22	=22
4E-	4A	4c	4f#
4E-	4B	4B	4f#
4E-	4c	4A	4f#
=23	=23	=23	=23
4D	4G	4B	4fn
4G	4B	4d	4f
4D	4G	4B	4f
=24	=24	=24	=24
2GG	2B	2G	2f
4r	4r	4r	4r
=25	=25	=25	=25
4C	4G	4E	4c
4C	4c	4G	4e
4C	4c	4G	4e
=26	=26	=26	=26
4C	4c	4A	4e
4C	4c	4G	4e
4C	4G	4E	4c
=27	=27	=27	=27
4AA	4D	4F#	4c
4D	4F#	4A	4c
4D	4A	4c	4f#
=28	=28	=28	=28
4D	4A	4d	4f#
4D	4A	4c	4f#
4D	4c	4A	4f#
=29	=29	=29	=29
2.D	2.A-	2.c	2.fn
=30	=30	=30	=30
4D	4G	4B	4f
4D	4An	4c	4f
4G	4B	4d	4f
=31	=31	=31	=31
[2.C	[2.G	[2.c	[2.e
=32	=32	=32	=32
4C]	4G]	4c]	4e]
4r	4r	4r	4r
4r	4r	4r	4r
==	==	==	==
*-	*-	*-	*-
